X:1
T:Boiled Owl
T:Boiled Owl
T:Rag
T:Margaret Woodin
T:Copyright 1911 by Margaret W. Coutchie.
T:Copyright 1911 by Margaret W. Coutchie.
T:Copyright 1911 by Margaret W. Coutchie.
T:Copyright 1911 by Margaret W. Coutchie.
C:Margaret Woodin
Z:Copyright 1911 by Margaret W. Coutchie.
%%score { 1 | 2 }
L:1/8
Q:1/4=90
M:2/4
K:C
V:1 treble nm="Piano" snm="Pno."
V:2 bass 
V:1
"^INTRO."!f! (3g/a/b/ | c'/ag/ e/c/A/E/ |!<(! G/AE/ G z!<)! | z c/d/ [Ge]/c/[Fd] | %4
!>(! [EGc] z!>)! !^![cegc'] z/ (3g/4a/4b/4 |:!mf! c'/g/a/e/ g/c/e/A/ | %6
 [EG]/[EA]E/ [EG] z/ (3g/4a/4b/4 | c'/g/a/e/ g/c/e/A/ | [FG]/[FA]D/ [B,FG] z | %9
 [FG]/A/[FB]/A/ [FA]/[FB]/[FA]/!<(![F_A]/ | [FG]/z/!<)![GBe]/[FBd]/- [FBd] z | %11
 [EG]/[EA]/[EB]/[EG]/ [EA]/[EB]/[EA]/[E_A]/ | [EG]/z/[EGd]/[EGc]/- [EGc] z/ (3g/4a/4b/4 | %13
 c'/g/a/e/ g/c/e/A/ |!<(! [EG]/[EA]E/ [EG]!<)! z | %15
!>(! [GA]/[GB]/!>)![G^c]/[GA]/ [GB]/[Gc]/[GB]/[GA]/ | [FAe]/z/[FA_e]/[FAd]/- [FAd] z/ f/4g/4 | %17
 a/d/f/A/ d/F/A/ e/4f/4 | g/c/e/G/ c/E/G/!<(!^G/ | [D^FA]/B/!<)![Fc]/A/ [Ge]/c/[=Fd]/ z/ |1 %20
 [EGc] z !>![GBdg] z/ (3g/4a/4b/4 :|2 [EGc]4 ||!f! z/ [E^GBe][^DGB^d]/ [EGBe]/[DGBd]/[EGBe]/[EG]/ | %23
 z/ [EAc]B/ [EAc]2 | z/ [CFAc][B,FB]/ [CFAc]/[B,FB]/[CFAc]/A/ | z/ [CEG]^F/ [CEG]2 | %26
 z/ [^CEA]^G/ [CEA]/G/[CA]/E/ | z/!<(! [DF]G/ [DFA]2!<)! | %28
 [A,^FA][B,FB]/[CFc]/- [CFc]/[B,FB]/[A,FA] | [DBd][EBe]/[FBdf]/- [FBdf]/[EBe]/[DBd] | %30
 z/ [E^GBe][^DGB^d]/ [EGBe]/[DGBd]/[EGBe]/[EG]/ |!<(! z/ [EAc]B/ [EAc]2!<)! | %32
 z/ [CFAc][B,FB]/ [CFAc]/[B,FB]/[CFAc]/A/ | z/ [CEG]^F/ [CEG]2 | %34
 z/ [^CEA]^G/ [CEA]/G/!<(![CEA]/E/ | z/!<)! [A,DF]G/!>(! [DFA]c!>)! | [Ge]/d/c/[Ge]/- [Ge]/d/c | %37
 [^Fe]/c/[=Fd]/[EGc]/-!>(! [EGc]2!>)! | z/ [E^GBe][^DGB^d]/ [EGBe]/[DGBd]/[EGBe]/[EG]/ | %39
 z/ [EAc]B/ [EAc]2 | z/ [CFAc][B,FB]/ [CFAc]/[B,FB]/[CFAc]/A/ | z/ [CEG]^F/ [CEG]2 | %42
 z/ [^CEA]^G/ [CEA]/G/[CA]/E/ | z/ [DF]G/ [DFA]2 | [A,^FA][B,FB]/[CFc]/- [CFc]/[B,FB]/[A,FA] | %45
 [DBd][EBe]/[FBdf]/- [FBdf]/[EBe]/[DBd] | z/ [E^GBe][^DGB^d]/ [EGBe]/[DGBd]/[EGBe]/[EG]/ | %47
!<(! z/ [EAc]B/!<)! [EAc]2 | z/ [CFAc][B,FB]/ [CFAc]/[B,FB]/!>(![CFAc]/A/!>)! | %49
 z/ [CEG]^F/ [CEG]2 | z/ [^CEA]^G/ [CEA]/G/!<(![CEA]/E/ | z/!<)! [A,DF]G/!>(! [DFA]c!>)! | %52
 [Ge]/d/c/[Ge]/- [Ge]/d/c | [^Fe]/!<(!c/[=Fd]/[EGc]/- [EGc]2!<)! || %54
[K:F]!f! [cc']/f/a/[d^fad']/- [dfad']2 | [Bb]/d/g/[A^cea]/- [Acea]2 | %56
 [Ff]/B/d/[Gg]/- [Gg]/d/!<(![Gg] | z/!<)! [Gg]/d/c/ B/ z!>(! z/ | [Dd]/!>)!F/B/[Ff]/- [Ff]/B/[Gg] | %59
 [Aa]/c/f/[cc']/- [cc']/[d^f]/[Aa] | [Ff]/=B/d/[Aa]/- [Aa]/[df]/[_A_a] | z/ [Gg]/e/c/ B/ z z/ | %62
 [cc']/f/a/[d^fad']/- [dfad']2 | [Bb]/d/g/[A^cea]/- [Acea]2 | [Ff]/B/d/[Gg]/- [Gg]/d/[^G^g] | %65
!<(! z/ [Aa]/e/^c/!<)! A/ z z/ | [Dd]/F/B/[Ff]/- [Ff]/[Bd]/[Gg] | %67
!ff! [Aa]/c/f/[cc']/- [cc']/[d^f]/[Aa] | [Ff]/=B/d/[Aa]/- [Aa]/[ce]/[Gg] | [FAcf] z [fac'f'] z |] %70
V:2
 z | z4 | z2 z [_A,,_A,] | [G,,G,]2 [G,,,G,,]2 | [C,C][G,,G,] !^![C,,C,] z |: C,[G,CE] G,,[G,CE] | %6
 C,[E,G,C] z/ [G,,G,]/[A,,A,]/[B,,B,]/ | C,[G,CE] G,,[G,CE] | %8
 [D,,D,][F,G,B,] z/ [G,,G,]/[A,,A,]/[^A,,^A,]/ | [B,,B,][F,G,B,] [D,,D,][F,G,B,] | %10
 G,,[F,G,B,] z/ [G,,G,]/[A,,A,]/[_A,,_A,]/ | [G,,G,][E,G,C] [C,,C,][E,G,C] | %12
 [E,,E,][E,G,C] z/ [G,,G,]/[A,,A,]/[B,,B,]/ | C,[G,CE] G,,[G,CE] | %14
 C,[E,G,C] z/ [G,,G,]/[A,,A,]/[^A,,^A,]/ | [A,,A,][G,A,^C] [E,,E,][G,A,C] | %16
 [F,,F,][F,A,D] z/ [A,,A,]/[G,,G,]/[F,,F,]/ | [D,,D,]A, [F,D]A,/[_A,,_A,]/ | %18
 [G,,G,][G,CE] [E,,E,][E,G,C] | [D,,D,][D,A,C] G,,[=F,G,B,] |1 [C,,C,] z [G,,,G,,] z :|2 %21
 [C,C][B,,B,][A,,A,][G,,G,] || [E,,E,][E,^G,B,] [B,,B,][G,B,D] | [A,,A,] [E,A,C]2 [G,,G,] | %24
 [F,,F,][C,F,A,] [C,,C,][C,F,A,] | [E,,E,] [E,G,C]2 [^G,,^G,] | [A,,A,][G,A,] [^C,,^C,][G,A,] | %27
 [D,,D,]F, [D,A,]F, | [^F,,^F,][D,F,A,] [D,,D,][D,F,A,] | [G,,,G,,][F,G,B,] [G,,G,][F,,F,] | %30
 [E,,E,][E,^G,B,] [B,,B,][G,B,D] | [A,,A,] [E,A,C]2 [G,,G,] | [F,,F,][C,F,A,] [C,,C,][C,F,A,] | %33
 [E,,E,] [E,G,C]2 [^G,,^G,] | [A,,A,][G,A,] E,[G,A,] | [D,,D,][F,,F,] [A,,A,][_A,,_A,] | %36
 [G,,G,][E,G,C] z [E,G,C] | [A,,A,][G,,G,] [C,G,]/[B,,B,]/[A,,A,]/[G,,G,]/ | %38
 [E,,E,][E,^G,B,] [B,,B,][G,B,D] | [A,,A,] [E,A,C]2 [G,,G,] | [F,,F,][C,F,A,] [C,,C,][C,F,A,] | %41
 [E,,E,] [E,G,C]2 [^G,,^G,] | [A,,A,][G,A,] [^C,,^C,][G,A,] | [D,,D,]F, [D,A,]F, | %44
 [^F,,^F,][D,F,A,] [D,,D,][D,F,A,] | [G,,,G,,][F,G,B,] [G,,G,][F,,F,] | %46
 [E,,E,][E,^G,B,] [B,,B,][G,B,D] | [A,,A,] [E,A,C]2 [G,,G,] | [F,,F,][C,F,A,] [C,,C,][C,F,A,] | %49
 [E,,E,] [E,G,C]2 [^G,,^G,] | [A,,A,][G,A,] E,[G,A,] | [D,,D,][F,,F,] [A,,A,][_A,,_A,] | %52
 [G,,G,][E,G,C] z [E,G,C] | [A,,A,][G,,G,] [C,G,]2 ||[K:F] [F,,F,][A,CF] [D,,D,][^F,A,C] | %55
 [G,,G,][G,B,D] [E,,E,][G,A,^C] | [B,,B,][F,,F,] [D,D][_D,_D] | [C,C] z z/ F/D/A,/ | %58
 [B,,B,][F,B,D] [D,,D,][B,,,B,,] | [C,,C,][A,CF] [D,,D,][^F,A,C] | %60
 [G,,,G,,][F,G,=B,] [D,,D,][F,G,B,] | [C,,C,] z z/ G/E/C/ | [F,,F,][A,CF] [D,,D,][^F,A,C] | %63
 [G,,G,][G,B,D] [E,,E,][G,A,^C] | [B,,,B,,][F,B,D] [D,,D,][F,B,D] | [A,,A,] z z/ E/^C/A,/ | %66
 [B,,B,][F,B,D] [F,,F,][D,,D,] | [C,,C,][A,CF] [F,,F,][^F,A,C] | [G,,G,][F,G,=B,] [C,,C,][G,_B,E] | %69
 [F,,F,] z [F,,,F,,] z |] %70

